; generated by PrusaSlicer 2.9.4 on 2025-12-27 at 19:27:28 UTC


;
;
; 

; external perimeters extrusion width = 0.45mm
; perimeters extrusion width = 0.45mm
; infill extrusion width = 0.45mm
; solid infill extrusion width = 0.45mm
; top infill extrusion width = 0.40mm
; first layer extrusion width = 0.42mm

; external perimeters extrusion width = 0.45mm
; perimeters extrusion width = 0.45mm
; infill extrusion width = 0.45mm
; solid infill extrusion width = 0.45mm
; top infill extrusion width = 0.40mm
; first layer extrusion width = 0.42mm

M73 P0 R71
M73 Q0 S72
M201 X1000 Y1000 Z200 E5000 ; sets maximum accelerations, mm/sec^2
M203 X200 Y200 Z12 E120 ; sets maximum feedrates, mm / sec
M204 S1250 T1250 ; sets acceleration (S) and retract acceleration (R), mm/sec^2
M205 X8.00 Y8.00 Z0.40 E4.50 ; sets the jerk limits, mm/sec
M205 S0 T0 ; sets the minimum extruding and travel feed rate, mm/sec

; printing object tolerance_test_square_peg.stl id:1 copy 0
; stop printing object tolerance_test_square_peg.stl id:1 copy 0
; printing object tolerance_test_square_block.stl id:0 copy 0
; stop printing object tolerance_test_square_block.stl id:0 copy 0

;TYPE:Custom
M862.3 P "MK3S" ; printer model check
M862.1 P0.4 ; nozzle diameter check
M115 U3.14.1 ; tell printer latest fw version
G90 ; use absolute coordinates
M83 ; extruder relative mode
M104 S215 ; set extruder temp
M140 S65 ; set bed temp
M190 S65 ; wait for bed temp
M109 S215 ; wait for extruder temp
G28 W ; home all without mesh bed level
G80 X84.1229 Y49.7325 W81.7542 H54.6446 ; mesh bed levelling

G1 Z0.2 F720
G1 Y-3 F1000 ; go outside print area
G92 E0
G1 X60 E9 F1000 ; intro line
G1 X100 E12.5 F1000 ; intro line

G92 E0
M221 S95

; Don't change E values below. Excessive value can damage the printer.
M907 E430 ; set extruder motor current
G21 ; set units to millimeters
G90 ; use absolute coordinates
M83 ; use relative distances for extrusion

M900 K0.05 ; Filament gcode LA 1.5
M900 K30 ; Filament gcode LA 1.0




M107
;LAYER_CHANGE
;Z:0.2
;HEIGHT:0.2
G1 E-.8 F2100
G1 Z.6 F720
G1 X84.702 Y76.752 F10800
G1 Z.2 F720
G1 E.8 F2100
M204 S800
;TYPE:Skirt/Brim
;WIDTH:0.42
G1 F1200
G1 X85.204 Y76.236 E.02257
G1 X118.714 Y51.624 E1.30363
G1 X121.02 Y50.545 E.07983
G1 X123.5 Y49.969 E.07983
G1 X126.5 Y49.969 E.09406
M73 Q0 S71
G1 X128.98 Y50.545 E.07983
G1 X131.286 Y51.624 E.07983
G1 X164.796 Y76.236 E1.30363
G1 X165.57 Y77.291 E.04103
G1 X165.689 Y78 E.02254
G1 X165.689 Y102 E.7525
G1 X165.298 Y103.248 E.04101
G1 X164.265 Y104.051 E.04102
G1 X163.5 Y104.189 E.02437
G1 X86.5 Y104.189 E2.41428
G1 X85.252 Y103.798 E.04101
G1 X84.449 Y102.765 E.04102
G1 X84.311 Y102 E.02437
G1 X84.311 Y78 E.7525
G1 X84.684 Y76.809 E.03913
M204 S1000
;WIPE_START
G1 F8640
G1 X84.702 Y76.752 E-.0138
G1 X85.204 Y76.236 E-.16623
G1 X87.368 Y74.647 E-.61997
;WIPE_END
G1 Z.6 F720
; printing object tolerance_test_square_block.stl id:0 copy 0
G1 X162.336 Y100.836 F10800
G1 Z.2 F720
G1 E.8 F2100
M204 S800
;TYPE:Perimeter
;WIDTH:0.419999
G1 F1200
G1 X87.664 Y100.836 E2.34128
G1 X87.664 Y79.164 E.67951
G1 X162.336 Y79.164 E2.34128
G1 X162.336 Y100.776 E.67763
M204 S1000
G1 X162.713 Y101.213 F10800
M204 S800
G1 F1200
G1 X87.287 Y101.213 E2.36493
G1 X87.287 Y78.787 E.70315
G1 X162.713 Y78.787 E2.36493
G1 X162.713 Y101.153 E.70127
M204 S1000
G1 X163.09 Y101.59 F10800
M204 S800
;TYPE:External perimeter
G1 F1200
G1 X86.91 Y101.59 E2.38857
G1 X86.91 Y78.41 E.72679
M73 Q1 S71
G1 X163.09 Y78.41 E2.38857
M73 P1 R71
G1 X163.09 Y101.53 E.72491
M204 S1000
;WIPE_START
G1 F8640
M73 P1 R70
G1 X163.09 Y101.59 E-.01385
G1 X159.685 Y101.59 E-.78615
;WIPE_END
G1 Z.6 F720
G1 X161.42 Y79.315 F10800
G1 Z.2 F720
G1 E.8 F2100
M204 S800
;TYPE:Solid infill
;WIDTH:0.421421
G1 F1200
G1 X162.015 Y79.911 E.02651
G1 X162.015 Y80.446 E.01684
G1 X161.054 Y79.485 E.04277
G1 X160.519 Y79.485 E.01684
G1 X162.015 Y80.981 E.06659
G1 X162.015 Y81.516 E.01684
G1 X159.984 Y79.485 E.0904
G1 X159.448 Y79.485 E.01687
G1 X162.015 Y82.052 E.11425
G1 X162.015 Y82.587 E.01684
G1 X158.913 Y79.485 E.13807
G1 X158.378 Y79.485 E.01684
G1 X162.015 Y83.122 E.16188
G1 X162.015 Y83.658 E.01687
G1 X157.842 Y79.485 E.18574
G1 X157.307 Y79.485 E.01684
G1 X162.015 Y84.193 E.20955
G1 X162.015 Y84.728 E.01684
G1 X156.772 Y79.485 E.23336
G1 X156.237 Y79.485 E.01684
G1 X162.015 Y85.263 E.25717
G1 X162.015 Y85.799 E.01687
G1 X155.701 Y79.485 E.28103
G1 X155.166 Y79.485 E.01684
G1 X162.015 Y86.334 E.30484
G1 X162.015 Y86.869 E.01684
G1 X154.631 Y79.485 E.32865
G1 X154.095 Y79.485 E.01687
G1 X162.015 Y87.405 E.35251
G1 X162.015 Y87.94 E.01684
G1 X153.56 Y79.485 E.37632
G1 X153.025 Y79.485 E.01684
G1 X162.015 Y88.475 E.40013
G1 X162.015 Y89.01 E.01684
G1 X152.49 Y79.485 E.42395
G1 X151.954 Y79.485 E.01687
G1 X162.015 Y89.546 E.4478
G1 X162.015 Y90.081 E.01684
G1 X151.419 Y79.485 E.47162
G1 X150.884 Y79.485 E.01684
G1 X162.015 Y90.616 E.49543
G1 X162.015 Y91.151 E.01684
G1 X150.349 Y79.485 E.51924
G1 X149.813 Y79.485 E.01687
G1 X162.015 Y91.687 E.5431
G1 X162.015 Y92.222 E.01684
G1 X149.278 Y79.485 E.56691
G1 X148.743 Y79.485 E.01684
G1 X162.015 Y92.757 E.59072
G1 X162.015 Y93.293 E.01687
G1 X148.207 Y79.485 E.61458
G1 X147.672 Y79.485 E.01684
G1 X162.015 Y93.828 E.63839
G1 X162.015 Y94.363 E.01684
G1 X147.137 Y79.485 E.6622
G1 X146.602 Y79.485 E.01684
G1 X162.015 Y94.898 E.68601
G1 X162.015 Y95.434 E.01687
G1 X146.066 Y79.485 E.70987
G1 X145.531 Y79.485 E.01684
G1 X162.015 Y95.969 E.73368
G1 X162.015 Y96.504 E.01684
M73 Q1 S70
G1 X144.996 Y79.485 E.7575
G1 X144.46 Y79.485 E.01687
G1 X162.015 Y97.04 E.78135
G1 X162.015 Y97.575 E.01684
G1 X143.925 Y79.485 E.80516
G1 X143.39 Y79.485 E.01684
G1 X162.015 Y98.11 E.82898
G1 X162.015 Y98.645 E.01684
G1 X142.855 Y79.485 E.85279
G1 X142.319 Y79.485 E.01687
G1 X162.015 Y99.181 E.87665
G1 X162.015 Y99.716 E.01684
G1 X141.784 Y79.485 E.90046
G1 X141.249 Y79.485 E.01684
G1 X162.015 Y100.251 E.92427
G1 X162.015 Y100.515 E.00831
G1 X161.744 Y100.515 E.00853
G1 X140.713 Y79.485 E.93604
G1 X140.178 Y79.485 E.01684
G1 X161.209 Y100.515 E.93604
G1 X160.674 Y100.515 E.01684
G1 X139.643 Y79.485 E.93604
G1 X139.108 Y79.485 E.01684
G1 X160.138 Y100.515 E.93602
G1 X159.603 Y100.515 E.01684
M73 P2 R70
M73 Q2 S70
G1 X138.572 Y79.485 E.93604
G1 X138.037 Y79.485 E.01684
G1 X159.068 Y100.515 E.93604
G1 X158.532 Y100.515 E.01687
G1 X137.502 Y79.485 E.93602
G1 X136.966 Y79.485 E.01687
G1 X157.997 Y100.515 E.93604
G1 X157.462 Y100.515 E.01684
G1 X136.431 Y79.485 E.93604
G1 X135.896 Y79.485 E.01684
G1 X156.927 Y100.515 E.93604
G1 X156.391 Y100.515 E.01687
G1 X135.361 Y79.485 E.93602
G1 X134.825 Y79.485 E.01687
G1 X155.856 Y100.515 E.93604
G1 X155.321 Y100.515 E.01684
G1 X134.29 Y79.485 E.93604
G1 X133.755 Y79.485 E.01684
G1 X154.785 Y100.515 E.93602
G1 X154.25 Y100.515 E.01684
G1 X133.22 Y79.485 E.93602
G1 X132.684 Y79.485 E.01687
G1 X153.715 Y100.515 E.93604
G1 X153.18 Y100.515 E.01684
G1 X132.149 Y79.485 E.93604
G1 X131.614 Y79.485 E.01684
G1 X152.644 Y100.515 E.93602
G1 X152.109 Y100.515 E.01684
G1 X131.078 Y79.485 E.93604
M73 P2 R69
G1 X130.543 Y79.485 E.01684
G1 X151.574 Y100.515 E.93604
G1 X151.038 Y100.515 E.01687
G1 X130.008 Y79.485 E.93602
G1 X129.473 Y79.485 E.01684
G1 X150.503 Y100.515 E.93602
G1 X149.968 Y100.515 E.01684
G1 X128.937 Y79.485 E.93604
G1 X128.402 Y79.485 E.01684
G1 X149.433 Y100.515 E.93604
G1 X148.897 Y100.515 E.01687
G1 X127.867 Y79.485 E.93602
G1 X127.331 Y79.485 E.01687
G1 X148.362 Y100.515 E.93604
G1 X147.827 Y100.515 E.01684
G1 X126.796 Y79.485 E.93604
G1 X126.261 Y79.485 E.01684
G1 X147.292 Y100.515 E.93604
G1 X146.756 Y100.515 E.01687
G1 X125.726 Y79.485 E.93602
G1 X125.19 Y79.485 E.01687
G1 X146.221 Y100.515 E.93604
G1 X145.686 Y100.515 E.01684
G1 X124.655 Y79.485 E.93604
G1 X124.12 Y79.485 E.01684
G1 X145.15 Y100.515 E.93602
G1 X144.615 Y100.515 E.01684
M73 P3 R69
M73 Q3 S69
G1 X123.584 Y79.485 E.93604
G1 X123.049 Y79.485 E.01684
G1 X144.08 Y100.515 E.93604
G1 X143.545 Y100.515 E.01684
G1 X122.514 Y79.485 E.93604
G1 X121.979 Y79.485 E.01684
G1 X143.009 Y100.515 E.93602
G1 X142.474 Y100.515 E.01684
G1 X121.443 Y79.485 E.93604
G1 X120.908 Y79.485 E.01684
G1 X141.939 Y100.515 E.93604
G1 X141.403 Y100.515 E.01687
G1 X120.373 Y79.485 E.93602
G1 X119.837 Y79.485 E.01687
G1 X140.868 Y100.515 E.93604
G1 X140.333 Y100.515 E.01684
G1 X119.302 Y79.485 E.93604
G1 X118.767 Y79.485 E.01684
G1 X139.798 Y100.515 E.93604
G1 X139.262 Y100.515 E.01687
G1 X118.232 Y79.485 E.93602
G1 X117.696 Y79.485 E.01687
G1 X138.727 Y100.515 E.93604
G1 X138.192 Y100.515 E.01684
G1 X117.161 Y79.485 E.93604
G1 X116.626 Y79.485 E.01684
G1 X137.656 Y100.515 E.93602
G1 X137.121 Y100.515 E.01684
G1 X116.091 Y79.485 E.93602
G1 X115.555 Y79.485 E.01687
G1 X136.586 Y100.515 E.93604
G1 X136.051 Y100.515 E.01684
G1 X115.02 Y79.485 E.93604
G1 X114.485 Y79.485 E.01684
G1 X135.515 Y100.515 E.93602
G1 X134.98 Y100.515 E.01684
G1 X113.949 Y79.485 E.93604
G1 X113.414 Y79.485 E.01684
G1 X134.445 Y100.515 E.93604
G1 X133.909 Y100.515 E.01687
G1 X112.879 Y79.485 E.93602
G1 X112.344 Y79.485 E.01684
G1 X133.374 Y100.515 E.93602
G1 X132.839 Y100.515 E.01684
G1 X111.808 Y79.485 E.93604
G1 X111.273 Y79.485 E.01684
G1 X132.304 Y100.515 E.93604
G1 X131.768 Y100.515 E.01687
G1 X110.738 Y79.485 E.93602
G1 X110.202 Y79.485 E.01687
G1 X131.233 Y100.515 E.93604
G1 X130.698 Y100.515 E.01684
M73 P3 R68
G1 X109.667 Y79.485 E.93604
G1 X109.132 Y79.485 E.01684
G1 X130.163 Y100.515 E.93604
G1 X129.627 Y100.515 E.01687
G1 X108.597 Y79.485 E.93602
G1 X108.061 Y79.485 E.01687
M73 P4 R68
M73 Q4 S69
G1 X129.092 Y100.515 E.93604
G1 X128.557 Y100.515 E.01684
G1 X107.526 Y79.485 E.93604
G1 X106.991 Y79.485 E.01684
G1 X128.021 Y100.515 E.93602
G1 X127.486 Y100.515 E.01684
G1 X106.455 Y79.485 E.93604
G1 X105.92 Y79.485 E.01684
G1 X126.951 Y100.515 E.93604
G1 X126.416 Y100.515 E.01684
G1 X105.385 Y79.485 E.93604
G1 X104.85 Y79.485 E.01684
G1 X125.88 Y100.515 E.93602
G1 X125.345 Y100.515 E.01684
G1 X104.314 Y79.485 E.93604
G1 X103.779 Y79.485 E.01684
G1 X124.81 Y100.515 E.93604
G1 X124.274 Y100.515 E.01687
G1 X103.244 Y79.485 E.93602
G1 X102.708 Y79.485 E.01687
G1 X123.739 Y100.515 E.93604
G1 X123.204 Y100.515 E.01684
M73 Q4 S68
G1 X102.173 Y79.485 E.93604
G1 X101.638 Y79.485 E.01684
G1 X122.669 Y100.515 E.93604
G1 X122.133 Y100.515 E.01687
G1 X101.103 Y79.485 E.93602
G1 X100.567 Y79.485 E.01687
G1 X121.598 Y100.515 E.93604
G1 X121.063 Y100.515 E.01684
G1 X100.032 Y79.485 E.93604
G1 X99.497 Y79.485 E.01684
G1 X120.527 Y100.515 E.93602
G1 X119.992 Y100.515 E.01684
G1 X98.962 Y79.485 E.93602
G1 X98.426 Y79.485 E.01687
G1 X119.457 Y100.515 E.93604
G1 X118.922 Y100.515 E.01684
G1 X97.891 Y79.485 E.93604
G1 X97.356 Y79.485 E.01684
G1 X118.386 Y100.515 E.93602
G1 X117.851 Y100.515 E.01684
G1 X96.82 Y79.485 E.93604
G1 X96.285 Y79.485 E.01684
G1 X117.316 Y100.515 E.93604
G1 X116.78 Y100.515 E.01687
G1 X95.75 Y79.485 E.93602
G1 X95.215 Y79.485 E.01684
G1 X116.245 Y100.515 E.93602
G1 X115.71 Y100.515 E.01684
G1 X94.679 Y79.485 E.93604
G1 X94.144 Y79.485 E.01684
G1 X115.175 Y100.515 E.93604
G1 X114.639 Y100.515 E.01687
G1 X93.609 Y79.485 E.93602
G1 X93.073 Y79.485 E.01687
M73 P5 R68
M73 Q5 S68
G1 X114.104 Y100.515 E.93604
G1 X113.569 Y100.515 E.01684
G1 X92.538 Y79.485 E.93604
G1 X92.003 Y79.485 E.01684
G1 X113.034 Y100.515 E.93604
G1 X112.498 Y100.515 E.01687
G1 X91.468 Y79.485 E.93602
G1 X90.932 Y79.485 E.01687
G1 X111.963 Y100.515 E.93604
G1 X111.428 Y100.515 E.01684
G1 X90.397 Y79.485 E.93604
G1 X89.862 Y79.485 E.01684
G1 X110.892 Y100.515 E.93602
G1 X110.357 Y100.515 E.01684
G1 X89.326 Y79.485 E.93604
G1 X88.791 Y79.485 E.01684
M73 P5 R67
G1 X109.822 Y100.515 E.93604
G1 X109.287 Y100.515 E.01684
G1 X88.256 Y79.485 E.93604
G1 X87.985 Y79.485 E.00853
G1 X87.985 Y79.749 E.00831
G1 X108.751 Y100.515 E.92427
G1 X108.216 Y100.515 E.01684
G1 X87.985 Y80.284 E.90046
G1 X87.985 Y80.819 E.01684
G1 X107.681 Y100.515 E.87665
G1 X107.145 Y100.515 E.01687
G1 X87.985 Y81.355 E.85279
G1 X87.985 Y81.89 E.01684
G1 X106.61 Y100.515 E.82898
G1 X106.075 Y100.515 E.01684
G1 X87.985 Y82.425 E.80516
G1 X87.985 Y82.96 E.01684
G1 X105.54 Y100.515 E.78135
G1 X105.004 Y100.515 E.01687
G1 X87.985 Y83.496 E.7575
G1 X87.985 Y84.031 E.01684
G1 X104.469 Y100.515 E.73368
G1 X103.934 Y100.515 E.01684
G1 X87.985 Y84.566 E.70987
G1 X87.985 Y85.102 E.01687
G1 X103.398 Y100.515 E.68601
G1 X102.863 Y100.515 E.01684
G1 X87.985 Y85.637 E.6622
G1 X87.985 Y86.172 E.01684
G1 X102.328 Y100.515 E.63839
G1 X101.793 Y100.515 E.01684
G1 X87.985 Y86.707 E.61458
G1 X87.985 Y87.243 E.01687
M73 Q5 S67
G1 X101.257 Y100.515 E.59072
G1 X100.722 Y100.515 E.01684
G1 X87.985 Y87.778 E.56691
G1 X87.985 Y88.313 E.01684
G1 X100.187 Y100.515 E.5431
G1 X99.651 Y100.515 E.01687
G1 X87.985 Y88.849 E.51924
G1 X87.985 Y89.384 E.01684
G1 X99.116 Y100.515 E.49543
G1 X98.581 Y100.515 E.01684
G1 X87.985 Y89.919 E.47162
G1 X87.985 Y90.454 E.01684
G1 X98.046 Y100.515 E.4478
G1 X97.51 Y100.515 E.01687
G1 X87.985 Y90.99 E.42395
G1 X87.985 Y91.525 E.01684
G1 X96.975 Y100.515 E.40013
G1 X96.44 Y100.515 E.01684
G1 X87.985 Y92.06 E.37632
G1 X87.985 Y92.595 E.01684
G1 X95.905 Y100.515 E.35251
G1 X95.369 Y100.515 E.01687
G1 X87.985 Y93.131 E.32865
G1 X87.985 Y93.666 E.01684
M73 P6 R67
G1 X94.834 Y100.515 E.30484
G1 X94.299 Y100.515 E.01684
G1 X87.985 Y94.201 E.28103
M73 Q6 S67
G1 X87.985 Y94.737 E.01687
G1 X93.763 Y100.515 E.25717
G1 X93.228 Y100.515 E.01684
G1 X87.985 Y95.272 E.23336
G1 X87.985 Y95.807 E.01684
G1 X92.693 Y100.515 E.20955
G1 X92.158 Y100.515 E.01684
G1 X87.985 Y96.342 E.18574
G1 X87.985 Y96.878 E.01687
G1 X91.622 Y100.515 E.16188
G1 X91.087 Y100.515 E.01684
G1 X87.985 Y97.413 E.13807
G1 X87.985 Y97.948 E.01684
G1 X90.552 Y100.515 E.11425
G1 X90.016 Y100.515 E.01687
G1 X87.985 Y98.484 E.0904
G1 X87.985 Y99.019 E.01684
G1 X89.481 Y100.515 E.06659
G1 X88.946 Y100.515 E.01684
G1 X87.985 Y99.554 E.04277
G1 X87.985 Y100.089 E.01684
G1 X88.58 Y100.685 E.02651
M204 S1000
;WIPE_START
G1 F8640
G1 X87.985 Y100.089 E-.19446
G1 X87.985 Y99.554 E-.12353
G1 X88.946 Y100.515 E-.31381
G1 X89.481 Y100.515 E-.12353
G1 X89.344 Y100.378 E-.04467
;WIPE_END
G1 Z.6 F720
; stop printing object tolerance_test_square_block.stl id:0 copy 0
; printing object tolerance_test_square_peg.stl id:1 copy 0
G1 X116.183 Y61.934 F10800
G1 Z.2 F720
G1 E.8 F2100
M204 S800
;TYPE:Perimeter
;WIDTH:0.419999
G1 F1200
G1 X116.364 Y60.219 E.05407
G1 X116.934 Y58.464 E.05786
G1 X117.857 Y56.865 E.05789
G1 X119.092 Y55.493 E.05788
G1 X120.585 Y54.408 E.05787
G1 X122.272 Y53.657 E.0579
G1 X124.076 Y53.274 E.05782
G1 X125.936 Y53.276 E.05832
G1 X127.728 Y53.657 E.05744
G1 X129.415 Y54.408 E.0579
G1 X130.908 Y55.493 E.05787
G1 X132.143 Y56.865 E.05788
G1 X133.066 Y58.464 E.05789
G1 X133.636 Y60.219 E.05786
G1 X133.829 Y62.055 E.05788
G1 X133.636 Y63.891 E.05788
G1 X133.066 Y65.646 E.05786
G1 X132.143 Y67.245 E.05789
G1 X130.908 Y68.616 E.05786
G1 X129.415 Y69.701 E.05787
G1 X127.728 Y70.452 E.0579
G1 X125.923 Y70.836 E.05786
G1 X124.077 Y70.836 E.05788
G1 X122.272 Y70.452 E.05786
G1 X120.585 Y69.701 E.0579
G1 X119.092 Y68.616 E.05787
G1 X117.857 Y67.245 E.05786
G1 X116.934 Y65.646 E.05789
G1 X116.364 Y63.891 E.05786
G1 X116.171 Y62.055 E.05788
G1 X116.177 Y61.994 E.00192
M204 S1000
G1 X115.8 Y61.973 F10800
M204 S800
G1 F1200
G1 X115.993 Y60.14 E.05779
G1 X116.588 Y58.309 E.06036
G1 X117.55 Y56.642 E.06035
G1 X118.838 Y55.211 E.06037
G1 X120.396 Y54.08 E.06036
G1 X122.154 Y53.297 E.06034
G1 X124.037 Y52.897 E.06036
G1 X125.976 Y52.899 E.0608
G1 X127.846 Y53.297 E.05995
G1 X129.604 Y54.08 E.06034
G1 X131.162 Y55.211 E.06036
G1 X132.45 Y56.642 E.06037
G1 X133.412 Y58.309 E.06035
G1 X134.007 Y60.14 E.06036
G1 X134.209 Y62.055 E.06038
G1 X134.007 Y63.969 E.06035
G1 X133.412 Y65.8 E.06036
G1 X132.45 Y67.467 E.06035
G1 X131.162 Y68.898 E.06037
G1 X129.604 Y70.03 E.06038
G1 X127.846 Y70.813 E.06034
G1 X125.963 Y71.213 E.06036
G1 X124.037 Y71.213 E.06039
G1 X122.154 Y70.813 E.06036
G1 X120.396 Y70.03 E.06034
G1 X118.838 Y68.898 E.06038
G1 X117.55 Y67.467 E.06037
G1 X116.588 Y65.8 E.06035
