; generated by PrusaSlicer 2.9.4 on 2025-12-29 at 00:09:08 UTC


;
;
; 

; external perimeters extrusion width = 0.60mm
; perimeters extrusion width = 0.50mm
; infill extrusion width = 0.50mm
; solid infill extrusion width = 0.50mm
; top infill extrusion width = 0.45mm
; first layer extrusion width = 0.42mm

M73 P0 R7
M73 Q0 S7
M201 X1000 Y1000 Z200 E5000 ; sets maximum accelerations, mm/sec^2
M203 X200 Y200 Z12 E120 ; sets maximum feedrates, mm / sec
M204 S1250 T1250 ; sets acceleration (S) and retract acceleration (R), mm/sec^2
M205 X8.00 Y8.00 Z0.40 E4.50 ; sets the jerk limits, mm/sec
M205 S0 T0 ; sets the minimum extruding and travel feed rate, mm/sec

; printing object drill_pins.stl id:0 copy 0
; stop printing object drill_pins.stl id:0 copy 0

;TYPE:Custom
M862.3 P "MK3S" ; printer model check
M862.1 P0.4 ; nozzle diameter check
M115 U3.14.1 ; tell printer latest fw version
G90 ; use absolute coordinates
M83 ; extruder relative mode
M104 S215 ; set extruder temp
M140 S65 ; set bed temp
M190 S65 ; wait for bed temp
M109 S215 ; wait for extruder temp
G28 W ; home all without mesh bed level
G80 X108.812 Y96.8396 W32.3767 H16.3208 ; mesh bed levelling

G1 Z0.2 F720
G1 Y-3 F1000 ; go outside print area
G92 E0
G1 X60 E9 F1000 ; intro line
G1 X100 E12.5 F1000 ; intro line

G92 E0
M221 S95

; Don't change E values below. Excessive value can damage the printer.

M907 E538 ; set extruder motor current
G21 ; set units to millimeters
G90 ; use absolute coordinates
M83 ; use relative distances for extrusion

M900 K0.05 ; Filament gcode LA 1.5
M900 K30 ; Filament gcode LA 1.0




M107
;LAYER_CHANGE
;Z:0.2
;HEIGHT:0.2
G1 E-.8 F2100
M73 P1 R7
M73 Q1 S7
G1 Z.6 F720
G1 X110.883 Y99.855 F10800
G1 Z.2 F720
G1 E.8 F2100
M204 S800
;TYPE:Skirt/Brim
;WIDTH:0.42
G1 F1200
G1 X112.011 Y98.76 E.04929
G1 X113.323 Y97.913 E.04896
G1 X114.776 Y97.338 E.049
G1 X116.062 Y97.082 E.04111
G1 X116.843 Y97.031 E.02454
G1 X133.089 Y97.078 E.50938
G1 X134.503 Y97.209 E.04452
M73 Q2 S7
G1 X135.5 Y97.459 E.03223
G1 X136.703 Y97.957 E.04082
G1 X138.008 Y98.799 E.0487
G1 X138.77 Y99.49 E.03225
M73 P2 R7
G1 X139.73 Y100.697 E.04836
G1 X140.349 Y101.853 E.04111
G1 X140.823 Y103.332 E.0487
G1 X141 Y104.874 E.04867
G1 X140.95 Y105.901 E.03224
G1 X140.696 Y107.178 E.04082
G1 X140.349 Y108.147 E.03227
G1 X139.596 Y109.504 E.04866
G1 X138.77 Y110.51 E.04081
G1 X138.008 Y111.201 E.03225
G1 X136.703 Y112.043 E.0487
G1 X135.5 Y112.541 E.04082
G1 X134.75 Y112.742 E.02435
G1 X133.207 Y112.919 E.0487
G1 X116.977 Y112.972 E.50888
G1 X116.062 Y112.918 E.02874
M73 P2 R6
G1 X114.776 Y112.662 E.04111
G1 X114.036 Y112.41 E.02451
G1 X113.101 Y111.969 E.03241
G1 X112.437 Y111.556 E.02452
G1 X111.423 Y110.724 E.04113
G1 X110.889 Y110.153 E.02451
G1 X110.413 Y109.532 E.02453
G1 X109.882 Y108.646 E.03239
G1 X109.307 Y107.193 E.049
G1 X109.027 Y105.666 E.04868
G1 X109.05 Y104.103 E.04901
G1 X109.377 Y102.576 E.04896
G1 X110 Y101.133 E.04928
M73 Q2 S6
G1 X110.848 Y99.904 E.04682
M204 S1000
G1 X111.168 Y100.162 F10800
M204 S800
G1 F1200
G1 X111.594 Y99.635 E.02125
G1 X112.661 Y98.747 E.04353
G1 X113.964 Y98.027 E.04668
G1 X115.382 Y97.575 E.04666
G1 X116.861 Y97.408 E.04667
G1 X133.088 Y97.455 E.50879
G1 X134.447 Y97.582 E.0428
G1 X135.373 Y97.814 E.02993
M73 Q3 S6
G1 X136.542 Y98.298 E.03967
G1 X137.783 Y99.102 E.04636
G1 X138.49 Y99.743 E.02992
G1 X139.407 Y100.892 E.04609
G1 X140.008 Y102.014 E.03991
G1 X140.458 Y103.423 E.04638
M73 P3 R6
G1 X140.623 Y104.893 E.04638
G1 X140.577 Y105.846 E.02992
G1 X140.33 Y107.087 E.03967
G1 X139.786 Y108.455 E.04616
G1 X139.293 Y109.279 E.03011
G1 X138.338 Y110.409 E.04639
G1 X137.182 Y111.331 E.04636
G1 X136.067 Y111.927 E.03964
G1 X134.658 Y112.376 E.04637
G1 X133.189 Y112.542 E.04635
G1 X116.976 Y112.595 E.50835
G1 X115.593 Y112.467 E.04355
G1 X113.964 Y111.973 E.05337
G1 X112.84 Y111.372 E.03996
G1 X112.235 Y110.937 E.02336
G1 X111.032 Y109.734 E.05334
G1 X110.596 Y109.129 E.02338
G1 X109.998 Y108.011 E.03975
G1 X109.543 Y106.586 E.0469
G1 X109.377 Y105.107 E.04666
G1 X109.501 Y103.627 E.04657
G1 X109.911 Y102.2 E.04655
G1 X110.596 Y100.871 E.04688
G1 X111.131 Y100.209 E.02669
M204 S1000
;WIPE_START
G1 F8640
G1 X111.168 Y100.162 E-.01381
G1 X111.594 Y99.635 E-.15647
G1 X112.661 Y98.747 E-.32053
G1 X113.833 Y98.099 E-.30919
;WIPE_END
G1 Z.6 F720
; printing object drill_pins.stl id:0 copy 0
G1 X120.035 Y102.091 F10800
G1 Z.2 F720
G1 E.8 F2100
M204 S800
;TYPE:Perimeter
;WIDTH:0.419999
G1 F1200
G1 X120.247 Y102.31 E.00956
G1 X120.602 Y102.822 E.01953
G1 X120.887 Y103.377 E.01956
G1 X121.077 Y103.971 E.01955
G1 X121.189 Y104.584 E.01954
G1 X121.199 Y105.208 E.01957
G1 X121.158 Y105.622 E.01304
G1 X121.027 Y106.231 E.01953
G1 X120.798 Y106.811 E.01955
G1 X120.495 Y107.356 E.01955
G1 X120.107 Y107.844 E.01955
G1 X119.659 Y108.278 E.01956
G1 X119.146 Y108.633 E.01956
G1 X118.592 Y108.918 E.01953
G1 X117.998 Y109.109 E.01956
G1 X117.384 Y109.22 E.01956
G1 X116.761 Y109.23 E.01954
G1 X116.141 Y109.159 E.01957
G1 X115.542 Y108.988 E.01953
G1 X114.97 Y108.74 E.01955
G1 X114.446 Y108.402 E.01955
G1 X113.97 Y107.999 E.01956
G1 X113.567 Y107.523 E.01956
G1 X113.229 Y106.999 E.01955
G1 X112.981 Y106.427 E.01955
G1 X112.81 Y105.827 E.01956
G1 X112.738 Y105.208 E.01954
G1 X112.748 Y104.584 E.01957
G1 X112.86 Y103.971 E.01954
G1 X113.051 Y103.377 E.01956
G1 X113.336 Y102.823 E.01953
G1 X113.691 Y102.31 E.01956
G1 X114.124 Y101.862 E.01954
G1 X114.613 Y101.474 E.01957
G1 X115.158 Y101.171 E.01955
G1 X115.738 Y100.942 E.01955
M73 Q4 S6
G1 X116.347 Y100.81 E.01954
G1 X116.969 Y100.759 E.01957
G1 X117.59 Y100.81 E.01954
G1 X118.2 Y100.942 E.01957
G1 X118.78 Y101.171 E.01955
G1 X119.325 Y101.474 E.01955
G1 X119.813 Y101.862 E.01955
G1 X119.994 Y102.048 E.00814
M204 S1000
G1 X120.314 Y101.838 F10800
M204 S800
G1 F1200
G1 X120.539 Y102.07 E.01013
G1 X120.925 Y102.629 E.0213
M73 P4 R6
G1 X121.235 Y103.233 E.02129
G1 X121.443 Y103.879 E.02128
G1 X121.565 Y104.547 E.02129
G1 X121.576 Y105.226 E.02129
G1 X121.531 Y105.677 E.01421
G1 X121.388 Y106.341 E.0213
G1 X121.139 Y106.972 E.02127
G1 X120.809 Y107.566 E.02131
G1 X120.386 Y108.098 E.02131
G1 X119.899 Y108.57 E.02126
G1 X119.34 Y108.956 E.0213
G1 X118.736 Y109.267 E.0213
G1 X118.09 Y109.474 E.02127
G1 X117.421 Y109.596 E.02132
G1 X116.742 Y109.607 E.02129
G1 X116.068 Y109.529 E.02127
G1 X115.415 Y109.343 E.02129
G1 X114.792 Y109.073 E.02129
G1 X114.221 Y108.705 E.0213
G1 X113.703 Y108.266 E.02129
G1 X113.264 Y107.748 E.02129
G1 X112.896 Y107.177 E.0213
G1 X112.626 Y106.554 E.02129
G1 X112.439 Y105.901 E.0213
G1 X112.362 Y105.226 E.0213
G1 X112.373 Y104.547 E.02129
G1 X112.494 Y103.879 E.02129
G1 X112.702 Y103.233 E.02128
G1 X113.012 Y102.629 E.02129
G1 X113.399 Y102.07 E.02132
G1 X113.871 Y101.582 E.02129
G1 X114.403 Y101.16 E.02129
G1 X114.997 Y100.83 E.02131
G1 X115.628 Y100.581 E.02127
G1 X116.292 Y100.437 E.0213
G1 X116.969 Y100.382 E.0213
G1 X117.646 Y100.437 E.0213
G1 X118.309 Y100.581 E.02127
G1 X118.941 Y100.83 E.0213
G1 X119.535 Y101.16 E.02131
G1 X120.066 Y101.582 E.02127
G1 X120.273 Y101.795 E.00931
M204 S1000
G1 X120.593 Y101.586 F10800
M204 S800
;TYPE:External perimeter
G1 F1200
G1 X120.831 Y101.831 E.01071
G1 X121.249 Y102.435 E.02303
G1 X121.584 Y103.088 E.02301
G1 X121.809 Y103.788 E.02305
G1 X121.94 Y104.51 E.02301
G1 X121.952 Y105.245 E.02305
G1 X121.904 Y105.732 E.01534
G1 X121.749 Y106.45 E.02303
G1 X121.479 Y107.133 E.02303
G1 X121.123 Y107.775 E.02302
G1 X120.666 Y108.351 E.02305
G1 X120.138 Y108.862 E.02304
G1 X119.534 Y109.28 E.02303
G1 X118.881 Y109.615 E.02301
G1 X118.181 Y109.84 E.02305
G1 X117.458 Y109.972 E.02304
G1 X116.724 Y109.984 E.02302
G1 X115.994 Y109.9 E.02304
G1 X115.288 Y109.698 E.02302
G1 X114.614 Y109.406 E.02303
G1 X113.996 Y109.008 E.02305
G1 X113.436 Y108.533 E.02302
G1 X112.961 Y107.973 E.02302
G1 X112.563 Y107.355 E.02305
G1 X112.271 Y106.681 E.02303
G1 X112.069 Y105.975 E.02302
G1 X111.985 Y105.244 E.02307
G1 X111.997 Y104.51 E.02302
G1 X112.129 Y103.787 E.02304
G1 X112.353 Y103.088 E.02301
G1 X112.689 Y102.435 E.02303
G1 X113.107 Y101.831 E.02303
G1 X113.618 Y101.303 E.02304
G1 X114.193 Y100.846 E.02303
G1 X114.836 Y100.489 E.02306
G1 X115.519 Y100.219 E.02303
G1 X116.237 Y100.064 E.02303
G1 X116.969 Y100.004 E.02303
G1 X117.701 Y100.064 E.02303
G1 X118.419 Y100.219 E.02303
G1 X119.102 Y100.489 E.02303
G1 X119.744 Y100.846 E.02303
G1 X120.32 Y101.303 E.02305
G1 X120.552 Y101.543 E.01047
M204 S1000
;WIPE_START
G1 F8640
G1 X120.593 Y101.586 E-.01372
G1 X120.831 Y101.831 E-.07887
G1 X121.249 Y102.435 E-.16961
G1 X121.584 Y103.088 E-.16946
G1 X121.809 Y103.788 E-.16978
G1 X121.94 Y104.51 E-.16943
G1 X121.942 Y104.636 E-.02913
;WIPE_END
G1 Z.6 F720
G1 X120.576 Y103.074 F10800
G1 Z.2 F720
G1 E.8 F2100
M204 S800
;TYPE:Solid infill
;WIDTH:0.43421
G1 F1200
G1 X119.455 Y101.97 E.05119
G1 X119.146 Y101.741 E.01251
G1 X118.817 Y101.543 E.01249
G1 X118.469 Y101.379 E.01252
G1 X118.249 Y101.3 E.00761
G1 X120.669 Y103.72 E.11135
G1 X120.813 Y104.235 E.0174
G1 X120.845 Y104.449 E.00704
G1 X117.519 Y101.124 E.15302
G1 X117.353 Y101.099 E.00546
M73 Q5 S6
G1 X116.925 Y101.082 E.01394
G1 X120.886 Y105.044 E.18228
G1 X120.844 Y105.555 E.01668
M73 P5 R6
G1 X116.413 Y101.124 E.20388
G1 X115.954 Y101.218 E.01524
G1 X120.751 Y106.015 E.22072
G1 X120.614 Y106.432 E.01428
G1 X115.537 Y101.354 E.23363
G1 X115.156 Y101.527 E.01361
G1 X120.442 Y106.813 E.24322
G1 X120.237 Y107.162 E.01317
G1 X114.807 Y101.731 E.24987
G1 X114.488 Y101.966 E.01289
G1 X120.003 Y107.481 E.25376
G1 X119.74 Y107.772 E.01276
G1 X114.197 Y102.228 E.25507
G1 X113.934 Y102.519 E.01276
G1 X119.45 Y108.034 E.25378
G1 X119.131 Y108.269 E.01289
G1 X113.7 Y102.838 E.2499
G1 X113.495 Y103.187 E.01317
G1 X118.782 Y108.473 E.24325
G1 X118.401 Y108.646 E.01361
M73 Q6 S6
G1 X113.323 Y103.568 E.23365
G1 X113.187 Y103.985 E.01427
M73 P6 R6
G1 X117.984 Y108.782 E.22072
G1 X117.524 Y108.876 E.01528
G1 X113.093 Y104.445 E.20388
G1 X113.051 Y104.956 E.01668
G1 X117.013 Y108.918 E.1823
G1 X116.585 Y108.901 E.01394
G1 X116.418 Y108.876 E.00549
G1 X113.093 Y105.551 E.15299
G1 X113.124 Y105.765 E.00704
G1 X113.269 Y106.28 E.01741
G1 X115.688 Y108.7 E.11133
G1 X115.469 Y108.621 E.00757
G1 X115.121 Y108.457 E.01252
G1 X114.791 Y108.259 E.01252
G1 X114.482 Y108.03 E.01251
G1 X113.361 Y106.926 E.05119
M204 S1000
;WIPE_START
G1 F8640
G1 X114.482 Y108.03 E-.36329
G1 X114.791 Y108.259 E-.08881
G1 X115.121 Y108.457 E-.08886
G1 X115.469 Y108.621 E-.08883
G1 X115.688 Y108.7 E-.05376
G1 X115.331 Y108.343 E-.11645
;WIPE_END
G1 Z.6 F720
G1 X129.581 Y107.279 F10800
G1 Z.2 F720
G1 E.8 F2100
M204 S800
;TYPE:Perimeter
;WIDTH:0.419999
G1 F1200
G1 X129.385 Y106.975 E.01134
G1 X129.14 Y106.41 E.01931
G1 X128.971 Y105.818 E.0193
G1 X128.901 Y105.205 E.01935
G1 X128.911 Y104.589 E.01932
G1 X129.021 Y103.983 E.01931
G1 X129.21 Y103.396 E.01934
G1 X129.491 Y102.848 E.01931
G1 X129.842 Y102.341 E.01933
G1 X130.27 Y101.899 E.01929
G1 X130.753 Y101.516 E.01933
G1 X131.292 Y101.216 E.01934
G1 X131.865 Y100.99 E.01931
G1 X132.467 Y100.86 E.01931
G1 X133.081 Y100.809 E.01932
G1 X133.695 Y100.86 E.01932
G1 X134.298 Y100.99 E.01934
G1 X134.871 Y101.216 E.01931
G1 X135.409 Y101.516 E.01931
G1 X135.892 Y101.899 E.01933
G1 X136.321 Y102.341 E.01931
G1 X136.672 Y102.848 E.01933
G1 X136.953 Y103.396 E.01931
G1 X137.141 Y103.983 E.01933
G1 X137.252 Y104.589 E.01932
G1 X137.262 Y105.205 E.01932
G1 X137.222 Y105.614 E.01289
G1 X137.092 Y106.217 E.01934
G1 X136.865 Y106.79 E.01932
G1 X136.566 Y107.328 E.0193
G1 X136.183 Y107.811 E.01933
G1 X135.74 Y108.239 E.01931
G1 X135.233 Y108.59 E.01933
G1 X134.685 Y108.872 E.01932
G1 X134.098 Y109.06 E.01933
G1 X133.492 Y109.171 E.01932
G1 X132.876 Y109.181 E.01932
G1 X132.264 Y109.11 E.01932
G1 X131.671 Y108.941 E.01933
G1 X131.106 Y108.696 E.01931
G1 X130.588 Y108.362 E.01933
G1 X130.118 Y107.963 E.01933
G1 X129.719 Y107.493 E.01933
G1 X129.614 Y107.33 E.00608
M204 S1000
G1 X129.278 Y107.504 F10800
M204 S800
G1 F1200
G1 X129.052 Y107.153 E.01309
G1 X128.785 Y106.537 E.02105
G1 X128.601 Y105.891 E.02106
G1 X128.524 Y105.224 E.02105
G1 X128.535 Y104.552 E.02107
G1 X128.655 Y103.891 E.02106
G1 X128.861 Y103.252 E.02105
G1 X129.168 Y102.654 E.02108
G1 X129.55 Y102.102 E.02105
M73 Q7 S6
G1 X130.017 Y101.619 E.02107
G1 X130.543 Y101.202 E.02105
G1 X131.13 Y100.875 E.02107
G1 X131.755 Y100.628 E.02107
G1 X132.412 Y100.487 E.02107
G1 X133.081 Y100.432 E.02105
G1 X133.751 Y100.487 E.02108
G1 X134.407 Y100.628 E.02104
M73 P7 R6
G1 X135.032 Y100.875 E.02107
G1 X135.619 Y101.202 E.02107
G1 X136.145 Y101.619 E.02105
G1 X136.613 Y102.102 E.02109
G1 X136.995 Y102.655 E.02107
G1 X137.302 Y103.252 E.02105
G1 X137.507 Y103.891 E.02104
G1 X137.627 Y104.552 E.02106
G1 X137.638 Y105.224 E.02107
G1 X137.595 Y105.67 E.01405
G1 X137.453 Y106.326 E.02104
G1 X137.206 Y106.951 E.02107
G1 X136.88 Y107.538 E.02105
G1 X136.462 Y108.064 E.02107
G1 X135.979 Y108.531 E.02107
G1 X135.427 Y108.914 E.02107
G1 X134.829 Y109.22 E.02106
G1 X134.19 Y109.426 E.02105
G1 X133.529 Y109.546 E.02106
G1 X132.857 Y109.557 E.02107
G1 X132.19 Y109.48 E.02105
G1 X131.544 Y109.296 E.02106
G1 X130.928 Y109.029 E.02105
G1 X130.363 Y108.665 E.02107
G1 X129.851 Y108.23 E.02107
G1 X129.416 Y107.718 E.02107
G1 X129.311 Y107.554 E.00611
M204 S1000
G1 X128.975 Y107.728 F10800
M204 S800
;TYPE:External perimeter
G1 F1200
G1 X128.719 Y107.331 E.01481
G1 X128.43 Y106.664 E.02279
G1 X128.231 Y105.965 E.02279
G1 X128.147 Y105.242 E.02282
G1 X128.159 Y104.515 E.0228
G1 X128.289 Y103.8 E.02279
G1 X128.512 Y103.107 E.02283
G1 X128.844 Y102.46 E.0228
G1 X129.258 Y101.862 E.0228
G1 X129.764 Y101.34 E.02279
G1 X130.334 Y100.888 E.02281
G1 X130.969 Y100.534 E.02279
G1 X131.646 Y100.267 E.02282
G1 X132.356 Y100.114 E.02277
G1 X133.081 Y100.054 E.02281
G1 X133.806 Y100.114 E.02281
G1 X134.517 Y100.267 E.0228
G1 X135.193 Y100.534 E.02279
G1 X135.829 Y100.888 E.02282
G1 X136.399 Y101.34 E.02281
G1 X136.904 Y101.862 E.02277
G1 X137.318 Y102.461 E.02283
G1 X137.651 Y103.107 E.02279
G1 X137.873 Y103.8 E.02282
G1 X138.003 Y104.515 E.02279
G1 X138.015 Y105.242 E.0228
G1 X137.968 Y105.725 E.01522
G1 X137.814 Y106.436 E.02281
G1 X137.547 Y107.112 E.02279
G1 X137.193 Y107.748 E.02282
G1 X136.741 Y108.317 E.02278
G1 X136.219 Y108.823 E.02279
G1 X135.621 Y109.237 E.0228
G1 X134.974 Y109.569 E.0228
G1 X134.282 Y109.792 E.0228
G1 X133.566 Y109.922 E.02282
G1 X132.839 Y109.934 E.0228
G1 X132.116 Y109.851 E.02282
G1 X131.417 Y109.651 E.0228
G1 X130.75 Y109.362 E.02279
G1 X130.139 Y108.968 E.0228
G1 X129.584 Y108.497 E.02282
G1 X129.114 Y107.943 E.02278
G1 X129.008 Y107.779 E.00612
M204 S1000
;WIPE_START
G1 F8640
G1 X128.975 Y107.728 E-.01403
G1 X128.719 Y107.331 E-.10907
G1 X128.43 Y106.664 E-.16785
G1 X128.231 Y105.965 E-.16781
G1 X128.147 Y105.242 E-.16807
G1 X128.159 Y104.515 E-.16789
G1 X128.163 Y104.492 E-.00528
;WIPE_END
G1 Z.6 F720
G1 X134.984 Y101.437 F10800
G1 Z.2 F720
G1 E.8 F2100
M204 S800
;TYPE:Solid infill
;WIDTH:0.429449
G1 F1200
G1 X136.073 Y102.545 E.04993
G1 X136.299 Y102.85 E.0122
G1 X136.494 Y103.176 E.01221
G1 X136.657 Y103.519 E.01221
G1 X136.733 Y103.732 E.00727
G1 X134.35 Y101.349 E.10831
G1 X133.836 Y101.205 E.01716
G1 X133.628 Y101.174 E.00676
G1 X136.908 Y104.453 E.14906
G1 X136.932 Y104.621 E.00545
G1 X136.949 Y105.041 E.01351
G1 X133.04 Y101.132 E.17768
G1 X132.535 Y101.174 E.01629
G1 X136.908 Y105.547 E.19877
G1 X136.815 Y106.001 E.01489
M73 Q8 S6
G1 X132.081 Y101.266 E.2152
G1 X131.668 Y101.4 E.01396
M73 P8 R6
G1 X136.681 Y106.413 E.22786
G1 X136.511 Y106.789 E.01326
G1 X131.292 Y101.571 E.2372
G1 X130.947 Y101.773 E.01285
G1 X136.308 Y107.134 E.24367
G1 X136.077 Y107.449 E.01255
G1 X130.632 Y102.004 E.24749
G1 X130.345 Y102.264 E.01245
G1 X135.818 Y107.736 E.24874
G1 X135.53 Y107.996 E.01247
G1 X130.085 Y102.551 E.24749
G1 X129.854 Y102.866 E.01255
G1 X135.215 Y108.227 E.24367
G1 X134.871 Y108.429 E.01282
G1 X129.652 Y103.211 E.2372
G1 X129.482 Y103.587 E.01326
G1 X134.494 Y108.6 E.22783
G1 X134.082 Y108.734 E.01392
G1 X129.347 Y103.999 E.21522
G1 X129.255 Y104.454 E.01492
